icons/op-accessibility-24.svg

<svg width="24" height="24" viewBox="0 0 24 24" fill="none" xmlns="http://www.w3.org/2000/svg">
<path d="M12 4C7.58848 4 4 7.58848 4 12C4 16.4115 7.58848 20 12 20C16.4115 20 20 16.4115 20 12C20 7.58848 16.4115 4 12 4ZM12 18.749C8.31276 18.749 5.25103 15.6872 5.25103 12C5.25103 8.31276 8.31276 5.25103 12 5.25103C15.6872 5.25103 18.749 8.31276 18.749 12C18.749 15.6872 15.6872 18.749 12 18.749ZM12 6.63374C9.03704 6.63374 6.63374 9.03704 6.63374 12C6.63374 14.963 9.03704 17.3663 12 17.3663C14.963 17.3663 17.3663 14.963 17.3663 12C17.3663 9.03704 14.963 6.63374 12 6.63374ZM12 7.68724C12.3292 7.68724 12.5267 7.78601 12.7243 7.98354C12.9547 8.21399 13.0535 8.41152 13.0535 8.74074C13.0535 9.36625 12.6255 9.79424 12 9.79424C11.3745 9.79424 10.9465 9.36625 10.9465 8.74074C10.9465 8.41152 11.0453 8.21399 11.2757 7.98354C11.4733 7.78601 11.6708 7.68724 12 7.68724ZM13.679 16.1152C13.4815 16.214 13.251 16.1152 13.0535 15.8848V15.786C12.6255 15.1605 12.3292 14.3045 12 13.4815C11.6708 14.3045 11.3745 15.1605 10.9465 15.8848V16.0165C10.749 16.214 10.5185 16.3128 10.321 16.214C10.2222 16.1152 10.0905 15.8848 10.2222 15.6872C10.2222 15.5885 10.2222 15.5885 10.321 15.4897C10.749 14.6337 11.144 13.679 11.3745 12.7243V11.144C10.5185 11.144 9.69547 11.0453 8.83951 10.9465C8.64198 10.9465 8.41152 10.749 8.41152 10.5185C8.41152 10.321 8.64198 10.0905 8.83951 10.0905C10.9465 10.321 12.9547 10.321 15.0617 10.0905C15.2593 10.0905 15.4897 10.2222 15.5885 10.5185C15.5885 10.749 15.358 10.9465 15.1605 10.9465C14.3045 11.0453 13.4815 11.0453 12.6255 11.0453V12.5267C12.856 13.5802 13.251 14.4362 13.679 15.2593C13.679 15.358 13.7778 15.358 13.7778 15.4897C13.9095 15.786 13.9095 16.0165 13.679 16.1152Z" fill="black"/>
</svg>

<svg xmlns="http://www.w3.org/2000/svg" width="24" height="24" viewBox="0 0 24 24"><path d="M12 4c-4.412 0-8 3.588-8 8s3.588 8 8 8 8-3.588 8-8-3.588-8-8-8Zm0 14.749c-3.687 0-6.749-3.062-6.749-6.749S8.313 5.251 12 5.251 18.749 8.313 18.749 12 15.687 18.749 12 18.749Zm0-12.115a5.367 5.367 0 1 0 .001 10.733A5.367 5.367 0 0 0 12 6.634Zm0 1.053c.329 0 .527.099.724.297.231.23.329.428.329.757 0 .625-.427 1.053-1.053 1.053-.626 0-1.053-.428-1.053-1.053 0-.329.098-.527.329-.757A.917.917 0 0 1 12 7.687Zm1.679 8.428c-.197.099-.428 0-.626-.23v-.099c-.427-.625-.724-1.481-1.053-2.304-.329.823-.626 1.679-1.053 2.403v.132c-.198.197-.429.296-.626.197-.099-.099-.23-.329-.099-.527 0-.099 0-.099.099-.197.428-.856.823-1.811 1.053-2.766v-1.58c-.856 0-1.679-.099-2.534-.197-.198 0-.428-.198-.428-.429 0-.197.23-.427.428-.427 2.107.23 4.115.23 6.222 0 .197 0 .428.131.526.427 0 .231-.23.429-.427.429-.856.098-1.679.098-2.535.098v1.482c.23 1.053.625 1.909 1.053 2.732 0 .099.099.099.099.231.131.296.131.527-.099.625Z"/></svg>
